X:1
T:Alma Redemptoris - Bernabei
T:James Gibb editions
T:#
%%score [ 1 2 3 4 ]
L:1/8
Q:1/4=100
M:4/4
K:C
V:1 treble nm="Soprano"
V:2 treble nm="Alto"
V:3 treble-8 nm="Tenor"
V:4 bass nm="Bass"
V:1
"^Giuseppe Antonio Bernabei\n(1649-1732)""^moderato" z2!p! A4 ^G2 | %1
w: Al- ma|
"^Alma Redemptoris Mater"!<(! A4 c4 | d2 e2!<)! d4 |"^,"!>(! =G4!>)!!p! G2 G2- | GG!<(! G2 G4!<)! | %5
w: Re- dem-|pto- ris Ma-|ter, quae per\-|* vi- a coe-|
"^," G4 A2 c2 |[M:4/4][Q:1/4=80][Q:1/4=80][Q:1/4=80][Q:1/4=80] (F2 G2 A4) |"^," ^G2!f! B2 c2 B2- | %8
w: li por- ta|ma\- * *|nes et stel- la|
 B2 A4"^," ^G2 | B2 !>!e4 c2 | d4 (!>!cdeA | B4) E4- | E4 z2 !>!A2- | AA G2 F3 F | %14
w: * ma- ris,|suc- cur- re|ca- den\- * * *|* ti,|* sur\-|* ge- re, sur- ge-|
"^," E2 e4 !>!d2- | d2 c2!>(! B3 B!>)! | A4!f!"^un poco più mosso"[Q:1/4=92] A4- | A2 G2 A2 G2 | %18
w: re qui cu\-|* rat po- pu-|lo, Tu,|* quae ge- nu-|
 G4"^," G2 d2 | c4"^," A2 d2 |[Q:1/4=92][Q:1/4=92][Q:1/4=92][Q:1/4=92] (Bc/d/ ed cB AB/c/) | %21
w: i- sti na-|tu- ra mi-|ran\- * * * * * * * * *|
 d4 G4 | z2!mf! G4 ^F2 | G4 A4 | G6 ^F2 | G8 |"^," G4!f! A4- | A2 A2 (GA _B2- | B2)"^," A2 d2 e2 | %29
w: * te|tu- um|san- ctum|ge- ni-|to-|rem, vir\-|* go pri\- * *|* us ac pos-|
 (^c2 d4) c2 |"^," d4!p! A2 A2 | A4 A2 G2 |!<(! G8!<)! |"^,"!>(! G2!>)! G4 ^G2 | A2 E2 (ABcB | %35
w: te\- * ri-|us Ga- bri-|e- lis ab|o-|re su- mens|il- lud A\- * * *|
 A6 ^G2) | A4 z2!p! A2- | A2 c2 F2"^lento"[Q:1/4=72] D2- |"^," D2 A2 ^G2 (!>!B2- | %39
w: |ve, pec\-|* ca- to- rum|* mi- se- re\-|
 BA!<(! A4 ^G2)!<)! |!>(! !fermata!A8!>)! |] %41
w: |re.|
V:2
!p! E4 E2 B,2 |!<(! C2 E4 A2!<)! | (F2 E2 F4- |!>(! F2)!>)!"^," E2!p! E2 E2- | %4
w: Al- ma Re-|dem- pto- ris|Ma\- * *|* ter, quae per\-|
 EE!<(! E2 D2!<)!"^," D2 | E2 G2 (F2 E2 |[M:4/4] D2 E4 D2) |"^," E2!f! E2 E2 E2 | E4 E4- | %9
w: * vi- a coe- li|por- ta ma\- *||nes et stel- la|ma- ris,|
"^," E4 E2 A2 | F2 D2 (!>!E4 | D4) C4 | z4 z2 !>!F2- | FF E4 D2- | DD ^C2 F4 | E2 E2!>(! E3 E!>)! | %16
w: * suc- cur-|re ca- den\-|* ti,|sur\-|* ge- re, sur\-|* ge- re, qui|cu- rat po- pu-|
"^," E2!f! =C2 C2 E2- | E2 E2 D4- | D2"^," C4 B,2 | E4"^," F4 | G4 (A3 G | F6 E2 | D4) C4 | %23
w: lo, Tu, quae ge\-|* nu- i\-|* sti na-|tu- ra|mi- ran\- *||* te|
 z2!mf! G4 F2 | E2 D2 C2 C2 | (D2 E2 D4) |"^," C2!f! C4 A,2 | F6"^," E2 | F2 F2 (D2 G2- | %29
w: tu- um|san- ctum ge- ni-|to\- * *|rem, vir- go|pri- us|ac pos- te\- *|
 G2 F2 E3) E |"^," D2!p! F4 F2 | E4 D2 D2 |!<(! (C2 D2 E4)!<)! |"^,"!>(! D2!>)! D4 E2 | %34
w: * * * ri-|us Ga- bri-|e- lis ab|o\- * *|re su- mens|
 E2 G2 (CD E2- | E2 D2) E4 | z4!p! E4 | F2 C2"^," D2 F2- | F2 E2 !>!E4- |!<(! E8!<)! | %40
w: il- lud A\- * *|* * ve,|pec-|ca- to- rum mi\-|* se- re\-||
!>(! !fermata!E8!>)! |] %41
w: re.|
V:3
!p! c4 B2 e2- |!<(! e2 c2 A4!<)! | B2 (c4!>(! B2)!>)! |"^," c2!p! c2 c3 c | c2!<(! c4"^," B2!<)! | %5
w: Al- ma Re\-|* dem- pto-|ris Ma\- *|ter, quae per- vi-|a coe- li|
 G2 B2 (c3 B/A/ |[M:4/4][K:treble-8] B4 A4) |"^," B2!f! ^G2 A2 B2 | c4"^," B2 B2 | e4 c2 c2- | %10
w: por- ta ma\- * *||nes et stel- la|ma- ris, suc-|cur- re ca\-|
 c2 (!>!B4 A2- | A2 ^G2)"^," A2 !>!c2- | cc"^," B2 !>!A3 A | c2 c2 !>!A4 |"^," A2 A4 B2 | %15
w: * den\- *|* * ti, sur\-|* ge- re, sur- ge-|re qui cu-|rat, qui cu-|
 ^G2!>(! A4 G2!>)! |"^," A2!f! e4 A2 | c6 B2 | e4"^," d2 G2- | G2 A4 B2- |"^," B2 c2 (!>!AB c2- | %21
w: rat po- pu-|lo, Tu, quae|ge- nu-|i- sti na\-|* tu- ra|* mi- ran\- * *|
 c2 B2 c4) | G4 z2!mf! c2- | c2 B2 A4 | B2 B4 A2 | (B2 c4 B2) | c4 z2!f! c2- | c2 d2 _B4 | %28
w: |te tu\-|* um san-|ctum ge- ni-|to\- * *|rem, vir\-|* go pri-|
"^," c2 c4 _B2 | A6 A2 |"^," A2!p! d4 d2 | c2 c4 B2 |!<(! (e2 d4 c2-!<)! | %33
w: us ac pos-|te- ri-|us Ga- bri-|e- lis ab|o\- * *|
!>(! c2)!>)!"^," B2 B2 B2 | c2 B2 (A2 ^G2 | A4)"^," c2!p! e2- | e2 f2 c2 A2 | c2 A2 A4- | %38
w: * re su- mens|il- lud A\- *|* ve, pec\-|* ca- to- rum,|pec- ca- to\-|
 A2"^," c2 B2 ^G2 |!<(! (!>!c4 B4)!<)! |!>(! !fermata!^c8!>)! |] %41
w: * rum mi- se-|re\- *|re.|
V:4
!p! A,4 E,4 |!<(! A,6 F,2 | D,2!<)! C,2 D,4 |"^,"!>(! C,4!>)!!p! C,2 C,2- | C,C,!<(! C,2 G,4!<)! | %5
w: Al- ma|Re- dem-|pto- ris Ma-|ter, quae per\-|* vi- a coe-|
"^," E,4 A,4- |[M:4/4] A,2 G,2 F,4 |"^," E,2!f! E,2 A,2 ^G,2 | A,4 E,4- |"^," E,2 E,2 A,4 | %10
w: li por\-|* ta ma-|nes et stel- la|ma- ris,|* suc- cur-|
 D,2 G,2 (C,4 | B,,4)"^," A,,2 !>!A,2- | A,A,"^," G,2 !>!F,3 F, | C,2 C,2 !>!D,4 |"^," A,,4 D,4 | %15
w: re ca- den\-|* ti, sur\-|* ge- re, sur- ge-|re qui cu-|rat, qui|
 E,2 A,,2!>(! E,3 E,!>)! |"^," A,,4!f! A,4- | A,2 E,2 F,2 G,2 | C,4 G,,4 | C,4 !>!D,4 | %20
w: cu- rat po- pu-|lo, Tu|* quae ge- nu-|i- sti|na- tu-|
"^," E,4 F,4 | D,4"^," C,2!mf! C2- | C2 B,2 A,4 | E,4 F,4 | (G,4 A,4) | G,8 |"^," C,4!f! F,4- | %27
w: ra mi-|ran- te tu\-|* um san-|ctum ge-|ni\- *|to-|rem, vir\-|
 F,2 D,2 G,4 |"^," F,4 _B,,2 G,,2 | A,,6 A,,2 |"^," D,2!p! D,4 D,2 | A,4 F,2 G,2 | %32
w: * go pri-|us ac pos-|te- ri-|us Ga- bri-|e- lis ab|
!<(! (C,2 B,,2 C,4)!<)! |"^,"!>(! G,,2!>)! G,4 E,2 | A,2 G,2 (F,2 E,2 | F,4)"^," E,4 |!p! A,6 C2 | %37
w: o\- * *|re su- mens|il- lud A\- *|* ve,|pec- ca-|
 F,4"^," D,2 D,2- | D,2 A,,2 (!>!E,3 D, | !>!C,2!<(! B,,A,, E,4)!<)! |!>(! !fermata!A,,8!>)! |] %41
w: to- rum mi-|* se- re- *||re.|

